X: 3
T: Female Sailor
T: longways for as many as will
T: Marche pour les Matelots
P: 
C: Marain Marais, Alcyone, 1706
C: 
N: 
N: 
K: E minor
M: 6/8
L: 1/8
P: A
"Em"E2B "B"B2A | "Em"G3 "D"A3 | "Em"B2A G2F | "Em"G2F E2^D | "Em"E2B "B"B2A | "Em"G3 "D"A3 | \
"Em"B2A G2F | "Em"E6 :|
P: B
"Em"g2f e2^d | "Em"e3 "B"B3 | "Em"g2f e2^d | "Em"e3 "E"B2d | \
"Am"c2A "Em"B2F | "Em"G2E G2A | "Em"B3 "A"^c2^d | "Em"e6 |
 "Em"g2f e2^d | "Em"e3 "B"B3 | \
"Em"g2f e2^d | "Em"e3 "E"B2d | "Am"c2A "Em"B2F | "Em"G2E G2A | "Em"B3 "B"F2E | "Em"E6 |] 


